; generated by Slic3r 1.2.9 on 2015-12-28 at 14:43:26

; external perimeters extrusion width = 0.40mm
; perimeters extrusion width = 0.67mm
; infill extrusion width = 0.67mm
; solid infill extrusion width = 0.67mm
; top infill extrusion width = 0.67mm

M127
M109 S50 ; set bed temperature
;
;
;- - - - SUMMARY - - - -
;
;first layer temperature = 218C
;temperature = 218C
;first layer bed temperature = 50C
;bed temperature = 40C
;
;first layer height = 0.2mm
;layer height = 0.2mm
;z_offset = 0mm
;perimeters = 3
;fill density = 100%
;infill every n layers = 1
;skirts = 3
;brim width = 0mm
;raft layers = 0
;support material = 0
;support material threshold = 0 degrees
;support material enforced for first n layers = 0
;support material extruder = 1
;
;first layer speed = 30
;perimeter speed = 30mm/s
;small perimeter speed = 10
;external perimeter speed = 10
;infill speed = 30mm/s
;solid infill speed = 30
;top solid infill speed = 30
;support material speed = 30mm/s
;gap fill speed = 15mm/s
;travel speed = 130mm/s
;bridge speed = 30mm/s
;bridge flow ratio = 1
;slowdown if layer time is less than = 5secs
;minimum print speed = 10mm/s
;
;bottom solid layers = 5
;top solid layers = 5
;
;
;- - - - EXTRUSION - - - -
;
;filament diameter = 1.67mm
;nozzle diameter = 0.4mm
;bridge flow ratio = 1
;extrusion axis = E
;extrusion multiplier = 1.4
;extrusion width = 0mm
;first layer extrusion width = 200%mm
;perimeter extrusion width = 0mm
;infill extrusion width = 0mm
;solid infill extrusion width = 0mm
;top infill extrusion width = 0mm
;support material extrusion width = 0mm
;
;
;- - - - SUPPORT - - - -
;
;raft layers = 0
;brim width = 0mm
;support material = 0
;support material threshold = 0 degrees
;support material enforced for first n layers = 0
;support material extruder = 1
;support material extrusion width = 0mm
;support material interface layers = 3
;support material interface spacing = 0mm
;support material pattern = pillars
;support material angle = 0 degrees
;support material spacing = 2.5mm
;support material speed = 30mm/s
;
;
;- - - - EVERYTHING ELSE - - - -
;
;complete objects = 0
;cooling enabled = 1
;default acceleration = 0mm/s/s
;disable fan for first layers = 3
;duplicate = [duplicate]
;duplicate distance = 6mm
;duplicate grid = [duplicate_grid]
;external perimeters first = 0
;extra perimeters = 1
;extruder clearance height = 40mm
;extruder clearance radius = 40mm
;extruder offset = 120,90mm
;fan always on = 0
;fan below layer time = 60secs
;fill angle = 45 degrees
;fill pattern = rectilinear
;gcode arcs = 0
;gcode comments = 0
;gcode flavor = makerware
;infill acceleration = 0mm/s/s
;infill extruder = 1
;infill first = 0
;infill only where needed = 0
;minimum skirt length = 0mm
;only retract when crossing perimeters = 1
;perimeter acceleration = 0mm/s/s
;perimeter extruder = 1
;randomize start = [randomize_start]
;resolution = 0mm
;retract before travel = 2
;retract on layer change = 0
;retract length = 2mm
;retract length on tool change = 10mm
;retract lift = 0
;retract extra distance on restart = 0mm
;retract extra on tool change = 0mm
;retract speed = 40mm/s
;rotate = [rotate] degrees
;scale = 100%
;skirt distance = 6mm
;skirt height = 1mm
;solid fill pattern = [solid_fill_pattern]
;solid infill below area = 70mm (sq)
;solid infill every n layers = 0
;
;
;- - - - - - - - - - - - - - - - - - - - - - - - -
;
;
T0; set primary extruder
M73 P0; enable show build progress
M109 S50 T0; heat bed up to first layer temperature
M104 S218 T0; set nozzle heater to first layer temperature
M103; disable RPM
G21; set units to mm
G162 X Y F6000; home XY axes maximum
G161 Z F9000; home Z axis minimum
G92 Z0; set Z to 0
M132 X Y Z A B; Recall stored home offsets
G90; set positioning to absolute
G1 Z30; move Z to waiting height
G1 X-95 Y-73 Z30 F14000; move to waiting position (front left corner of print bed)
G130 X0 Y0 A0 B0; set stepper motor vref to lower value while heating
M6 T0; wait for bed and extruder to heat up
G130 X127 Y127 A127 B127; set stepper motor vref to defaults
M108 T0 R3; set extruder speed
G92 E0; set E to 0
G90; use absolute coordinates
M320; acceleration enabled for all commands that follow
G1 Z0.2 F6000.000; move to first layer height
G1 X100 Y-73 F14000.000; move to front right corner of bed
G1 X-90 Y-73 E24 F2000.000; extrude a line of filament across the front edge of the bed
G4 P2000; wait for ooze to slow
G1 Z0 F6000.000; lower nozzle height to 0
G1 X-95; wipe nozzle
G1 Z0.2 F6000.000; set nozzle to first layer height
G1 F12000; ensure fast travel to first print move
G92 E0; set E to 0 again
M73 P0; reset build progress to 0
M73 P0
G1 Z0.200 F7800.000
G1 E-2.00000 F2400.00000
M103 ; extruder off
G1 X-19.527 Y-32.411 F7800.000
M101 ; extruder on
G1 E0.00000 F2400.00000
G1 X-17.759 Y-33.989 E0.10818 F1800.000
G1 X-15.569 Y-34.895 E0.21636
G1 X-14.000 Y-35.071 E0.28844
G1 X34.000 Y-35.071 E2.47944
G1 X36.337 Y-34.674 E2.58762
M101 ; extruder on
G1 X38.411 Y-33.527 E2.69580 F1800.000
G1 X39.989 Y-31.759 E2.80398
G1 X40.895 Y-29.569 E2.91217
G1 X41.071 Y-28.000 E2.98425
G1 X41.071 Y0.000 E4.26233
G1 X40.674 Y2.337 E4.37051
G1 X39.527 Y4.411 E4.47869
G1 X37.759 Y5.989 E4.58687
G1 X35.569 Y6.895 E4.69505
G1 X34.000 Y7.071 E4.76713
G1 X-14.000 Y7.071 E6.95813
G1 X-16.337 Y6.674 E7.06631
G1 X-18.411 Y5.527 E7.17449
G1 X-19.989 Y3.759 E7.28267
G1 X-20.895 Y1.569 E7.39086
G1 X-21.071 Y0.000 E7.46294
G1 X-21.071 Y-28.000 E8.74102
G1 X-20.674 Y-30.337 E8.84920
G1 X-19.556 Y-32.358 E8.95464
G1 X-19.204 Y-32.226 F7800.000
M101 ; extruder on
G1 X-19.173 Y-32.280 E8.95748 F1800.000
G1 X-17.417 Y-33.780 E9.06288
G1 X-15.257 Y-34.595 E9.16827
G1 X-14.000 Y-34.714 E9.22591
G1 X34.000 Y-34.714 E11.41691
G1 X36.275 Y-34.317 E11.52230
M101 ; extruder on
G1 X38.280 Y-33.173 E11.62769 F1800.000
G1 X39.780 Y-31.417 E11.73309
G1 X40.595 Y-29.257 E11.83848
G1 X40.714 Y-28.000 E11.89612
G1 X40.714 Y0.000 E13.17420
G1 X40.317 Y2.275 E13.27960
G1 X39.173 Y4.280 E13.38499
G1 X37.417 Y5.780 E13.49039
G1 X35.257 Y6.595 E13.59578
G1 X34.000 Y6.714 E13.65342
G1 X-14.000 Y6.714 E15.84441
G1 X-16.275 Y6.317 E15.94981
G1 X-18.280 Y5.173 E16.05520
G1 X-19.780 Y3.417 E16.16060
G1 X-20.595 Y1.257 E16.26599
G1 X-20.714 Y0.000 E16.32363
G1 X-20.714 Y-28.000 E17.60171
G1 X-20.317 Y-30.275 E17.70710
G1 X-19.234 Y-32.174 E17.80692
G1 X-18.883 Y-32.037 F7800.000
M101 ; extruder on
G1 X-18.819 Y-32.146 E17.81268 F1800.000
G1 X-17.077 Y-33.563 E17.91521
G1 X-14.000 Y-34.357 E18.06024
G1 X34.000 Y-34.357 E20.25124
G1 X36.211 Y-33.960 E20.35377
M101 ; extruder on
G1 X38.146 Y-32.819 E20.45630 F1800.000
G1 X39.563 Y-31.077 E20.55883
G1 X40.357 Y-28.000 E20.70387
G1 X40.357 Y0.000 E21.98195
G1 X39.960 Y2.211 E22.08448
G1 X38.819 Y4.146 E22.18701
G1 X37.077 Y5.563 E22.28954
G1 X34.000 Y6.357 E22.43457
G1 X-14.000 Y6.357 E24.62557
G1 X-16.211 Y5.960 E24.72810
G1 X-18.146 Y4.819 E24.83063
G1 X-19.563 Y3.077 E24.93317
G1 X-20.357 Y0.000 E25.07820
G1 X-20.357 Y-28.000 E26.35628
G1 X-19.960 Y-30.211 E26.45881
G1 X-18.914 Y-31.985 E26.55284
G1 E24.55284 F2400.00000
M103 ; extruder off
G1 X33.086 Y-0.914 F7800.000
M101 ; extruder on
G1 E26.55284 F2400.00000
G1 X-13.086 Y-0.914 E28.66038 F1800.000
G1 X-13.086 Y-27.086 E29.85501
G1 X33.086 Y-27.086 E31.96255
G1 X33.086 Y-0.974 E33.15444
G1 X33.443 Y-0.557 F7800.000
M101 ; extruder on
G1 X-13.443 Y-0.557 E35.29458 F1800.000
G1 X-13.443 Y-27.443 E36.52180
G1 X33.443 Y-27.443 E38.66194
G1 X33.443 Y-0.617 E39.88642
G1 X33.800 Y-0.200 F7800.000
M101 ; extruder on
G1 X-13.800 Y-0.200 E42.05916 F1800.000
G1 X-13.800 Y-27.800 E43.31898
G1 X33.800 Y-27.800 E45.49172
G1 X33.800 Y-0.260 E46.74881
G1 X33.454 Y-0.400 F7800.000
G1 X32.825 Y-26.633 F7800.000
M101 ; extruder on
G1 X32.633 Y-26.825 E46.76121 F1800.000
G1 X32.126 Y-26.825 E46.78440
G1 X32.825 Y-26.127 E46.82960
G1 X32.825 Y-25.620 E46.85279
G1 X31.620 Y-26.825 E46.93079
G1 X31.113 Y-26.825 E46.95398
G1 X32.825 Y-25.113 E47.06477
G1 X32.825 Y-24.607 E47.08797
G1 X30.607 Y-26.825 E47.23156
G1 X30.100 Y-26.825 E47.25475
G1 X32.825 Y-24.100 E47.43115
G1 X32.825 Y-23.594 E47.45434
G1 X29.594 Y-26.825 E47.66353
G1 X29.087 Y-26.825 E47.68673
G1 X32.825 Y-23.087 E47.92872
G1 X32.825 Y-22.581 E47.95191
G1 X28.581 Y-26.825 E48.22670
G1 X28.074 Y-26.825 E48.24989
G1 X32.825 Y-22.074 E48.55748
G1 X32.825 Y-21.568 E48.58067
G1 X27.568 Y-26.825 E48.92106
G1 X27.061 Y-26.825 E48.94425
G1 X32.825 Y-21.061 E49.31744
G1 X32.825 Y-20.555 E49.34063
G1 X26.555 Y-26.825 E49.74662
G1 X26.048 Y-26.825 E49.76981
G1 X32.825 Y-20.048 E50.20860
G1 X32.825 Y-19.542 E50.23179
G1 X25.542 Y-26.825 E50.70337
G1 X25.035 Y-26.825 E50.72656
G1 X32.825 Y-19.035 E51.23095
G1 X32.825 Y-18.528 E51.25414
G1 X24.528 Y-26.825 E51.79132
G1 X24.022 Y-26.825 E51.81451
G1 X32.825 Y-18.022 E52.38449
G1 X32.825 Y-17.515 E52.40768
G1 X23.515 Y-26.825 E53.01046
G1 X23.009 Y-26.825 E53.03365
G1 X32.825 Y-17.009 E53.66923
G1 X32.825 Y-16.502 E53.69242
G1 X22.502 Y-26.825 E54.36080
G1 X21.996 Y-26.825 E54.38399
G1 X32.825 Y-15.996 E55.08517
G1 X32.825 Y-15.489 E55.10836
G1 X21.489 Y-26.825 E55.84234
G1 X20.983 Y-26.825 E55.86553
G1 X32.825 Y-14.983 E56.63230
G1 X32.825 Y-14.476 E56.65549
G1 X20.476 Y-26.825 E57.45506
G1 X19.970 Y-26.825 E57.47826
G1 X32.825 Y-13.970 E58.31063
G1 X32.825 Y-13.463 E58.33382
G1 X19.463 Y-26.825 E59.19899
G1 X18.957 Y-26.825 E59.22218
G1 X32.825 Y-12.957 E60.12015
G1 X32.825 Y-12.450 E60.14334
G1 X18.450 Y-26.825 E61.07411
G1 X17.943 Y-26.825 E61.09730
G1 X32.825 Y-11.943 E62.06087
G1 X32.825 Y-11.437 E62.08406
G1 X17.437 Y-26.825 E63.08043
G1 X16.930 Y-26.825 E63.10362
G1 X32.825 Y-10.930 E64.13278
G1 X32.825 Y-10.424 E64.15597
G1 X16.424 Y-26.825 E65.21794
G1 X15.917 Y-26.825 E65.24113
G1 X32.825 Y-9.917 E66.33589
G1 X32.825 Y-9.411 E66.35908
G1 X15.411 Y-26.825 E67.48664
G1 X14.904 Y-26.825 E67.50984
G1 X32.825 Y-8.904 E68.67019
G1 X32.825 Y-8.398 E68.69339
G1 X14.398 Y-26.825 E69.88654
G1 X13.891 Y-26.825 E69.90974
G1 X32.825 Y-7.891 E71.13569
G1 X32.825 Y-7.385 E71.15889
G1 X13.385 Y-26.825 E72.41764
G1 X12.878 Y-26.825 E72.44083
G1 X32.825 Y-6.878 E73.73239
G1 X32.825 Y-6.372 E73.75558
G1 X12.372 Y-26.825 E75.07993
G1 X11.865 Y-26.825 E75.10313
G1 X32.825 Y-5.865 E76.46028
G1 X32.825 Y-5.358 E76.48347
G1 X11.358 Y-26.825 E77.87342
G1 X10.852 Y-26.825 E77.89661
G1 X32.825 Y-4.852 E79.31936
G1 X32.825 Y-4.345 E79.34256
G1 X10.345 Y-26.825 E80.79811
G1 X9.839 Y-26.825 E80.82130
G1 X32.825 Y-3.839 E82.30965
G1 X32.825 Y-3.332 E82.33284
G1 X9.332 Y-26.825 E83.85398
G1 X8.826 Y-26.825 E83.87718
G1 X32.825 Y-2.826 E85.43112
G1 X32.825 Y-2.319 E85.45431
G1 X8.319 Y-26.825 E87.04106
G1 X7.813 Y-26.825 E87.06425
G1 X32.825 Y-1.813 E88.68379
G1 X32.825 Y-1.306 E88.70699
G1 X7.306 Y-26.825 E90.35933
G1 X6.800 Y-26.825 E90.38252
G1 X32.449 Y-1.175 E92.04332
G1 X31.942 Y-1.175 E92.06652
G1 X6.293 Y-26.825 E93.72732
G1 X5.787 Y-26.825 E93.75051
G1 X31.436 Y-1.175 E95.41132
G1 X30.929 Y-1.175 E95.43451
G1 X5.280 Y-26.825 E97.09531
G1 X4.773 Y-26.825 E97.11850
G1 X30.423 Y-1.175 E98.77931
G1 X29.916 Y-1.175 E98.80250
G1 X4.267 Y-26.825 E100.46331
G1 X3.760 Y-26.825 E100.48650
G1 X29.409 Y-1.175 E102.14730
G1 X28.903 Y-1.175 E102.17049
G1 X3.254 Y-26.825 E103.83130
G1 X2.747 Y-26.825 E103.85449
G1 X28.396 Y-1.175 E105.51529
G1 X27.890 Y-1.175 E105.53849
G1 X2.241 Y-26.825 E107.19929
G1 X1.734 Y-26.825 E107.22248
G1 X27.383 Y-1.175 E108.88329
G1 X26.877 Y-1.175 E108.90648
G1 X1.228 Y-26.825 E110.56728
G1 X0.721 Y-26.825 E110.59047
G1 X26.370 Y-1.175 E112.25128
G1 X25.864 Y-1.175 E112.27447
G1 X0.215 Y-26.825 E113.93528
G1 X-0.292 Y-26.825 E113.95847
G1 X25.357 Y-1.175 E115.61927
G1 X24.851 Y-1.175 E115.64246
G1 X-0.798 Y-26.825 E117.30327
G1 X-1.305 Y-26.825 E117.32646
G1 X24.344 Y-1.175 E118.98726
G1 X23.838 Y-1.175 E119.01046
G1 X-1.812 Y-26.825 E120.67126
G1 X-2.318 Y-26.825 E120.69445
G1 X23.331 Y-1.175 E122.35526
G1 X22.824 Y-1.175 E122.37845
G1 X-2.825 Y-26.825 E124.03925
G1 X-3.331 Y-26.825 E124.06244
G1 X22.318 Y-1.175 E125.72325
G1 X21.811 Y-1.175 E125.74644
G1 X-3.838 Y-26.825 E127.40725
G1 X-4.344 Y-26.825 E127.43044
G1 X21.305 Y-1.175 E129.09124
G1 X20.798 Y-1.175 E129.11443
G1 X-4.851 Y-26.825 E130.77524
G1 X-5.357 Y-26.825 E130.79843
G1 X20.292 Y-1.175 E132.45923
G1 X19.785 Y-1.175 E132.48243
G1 X-5.864 Y-26.825 E134.14323
G1 X-6.370 Y-26.825 E134.16642
G1 X19.279 Y-1.175 E135.82723
G1 X18.772 Y-1.175 E135.85042
G1 X-6.877 Y-26.825 E137.51122
G1 X-7.383 Y-26.825 E137.53441
G1 X18.266 Y-1.175 E139.19522
G1 X17.759 Y-1.175 E139.21841
G1 X-7.890 Y-26.825 E140.87922
G1 X-8.397 Y-26.825 E140.90241
G1 X17.253 Y-1.175 E142.56321
G1 X16.746 Y-1.175 E142.58640
G1 X-8.903 Y-26.825 E144.24721
G1 X-9.410 Y-26.825 E144.27040
G1 X16.239 Y-1.175 E145.93120
G1 X15.733 Y-1.175 E145.95440
G1 X-9.916 Y-26.825 E147.61520
G1 X-10.423 Y-26.825 E147.63839
G1 X15.226 Y-1.175 E149.29920
G1 X14.720 Y-1.175 E149.32239
G1 X-10.929 Y-26.825 E150.98319
G1 X-11.436 Y-26.825 E151.00638
G1 X14.213 Y-1.175 E152.66719
G1 X13.707 Y-1.175 E152.69038
G1 X-11.942 Y-26.825 E154.35119
G1 X-12.449 Y-26.825 E154.37438
G1 X13.200 Y-1.175 E156.03518
G1 X12.694 Y-1.175 E156.05837
G1 X-12.825 Y-26.694 E157.71071
G1 X-12.825 Y-26.187 E157.73390
G1 X12.187 Y-1.175 E159.35343
G1 X11.681 Y-1.175 E159.37663
G1 X-12.825 Y-25.681 E160.96336
G1 X-12.825 Y-25.174 E160.98655
G1 X11.174 Y-1.175 E162.54049
G1 X10.668 Y-1.175 E162.56368
G1 X-12.825 Y-24.668 E164.08482
G1 X-12.825 Y-24.161 E164.10802
G1 X10.161 Y-1.175 E165.59635
G1 X9.654 Y-1.175 E165.61955
G1 X-12.825 Y-23.654 E167.07509
G1 X-12.825 Y-23.148 E167.09828
G1 X9.148 Y-1.175 E168.52102
G1 X8.641 Y-1.175 E168.54421
G1 X-12.825 Y-22.641 E169.93416
G1 X-12.825 Y-22.135 E169.95735
G1 X8.135 Y-1.175 E171.31449
G1 X7.628 Y-1.175 E171.33769
G1 X-12.825 Y-21.628 E172.66203
G1 X-12.825 Y-21.122 E172.68522
G1 X7.122 Y-1.175 E173.97677
G1 X6.615 Y-1.175 E173.99996
G1 X-12.825 Y-20.615 E175.25871
G1 X-12.825 Y-20.109 E175.28190
G1 X6.109 Y-1.175 E176.50785
G1 X5.602 Y-1.175 E176.53104
G1 X-12.825 Y-19.602 E177.72419
G1 X-12.825 Y-19.096 E177.74739
G1 X5.096 Y-1.175 E178.90774
G1 X4.589 Y-1.175 E178.93093
G1 X-12.825 Y-18.589 E180.05848
G1 X-12.825 Y-18.083 E180.08167
G1 X4.083 Y-1.175 E181.17643
G1 X3.576 Y-1.175 E181.19962
G1 X-12.825 Y-17.576 E182.26157
G1 X-12.825 Y-17.070 E182.28477
G1 X3.070 Y-1.175 E183.31392
G1 X2.563 Y-1.175 E183.33711
G1 X-12.825 Y-16.563 E184.33347
G1 X-12.825 Y-16.056 E184.35666
G1 X2.056 Y-1.175 E185.32022
G1 X1.550 Y-1.175 E185.34341
G1 X-12.825 Y-15.550 E186.27417
G1 X-12.825 Y-15.043 E186.29736
G1 X1.043 Y-1.175 E187.19533
G1 X0.537 Y-1.175 E187.21852
G1 X-12.825 Y-14.537 E188.08368
G1 X-12.825 Y-14.030 E188.10687
G1 X0.030 Y-1.175 E188.93923
G1 X-0.476 Y-1.175 E188.96243
G1 X-12.825 Y-13.524 E189.76199
G1 X-12.825 Y-13.017 E189.78518
G1 X-0.983 Y-1.175 E190.55195
G1 X-1.489 Y-1.175 E190.57514
G1 X-12.825 Y-12.511 E191.30911
G1 X-12.825 Y-12.004 E191.33230
G1 X-1.996 Y-1.175 E192.03347
G1 X-2.502 Y-1.175 E192.05666
G1 X-12.825 Y-11.498 E192.72503
G1 X-12.825 Y-10.991 E192.74822
G1 X-3.009 Y-1.175 E193.38379
G1 X-3.515 Y-1.175 E193.40698
G1 X-12.825 Y-10.485 E194.00975
G1 X-12.825 Y-9.978 E194.03294
G1 X-4.022 Y-1.175 E194.60291
G1 X-4.529 Y-1.175 E194.62611
G1 X-12.825 Y-9.471 E195.16328
G1 X-12.825 Y-8.965 E195.18647
G1 X-5.035 Y-1.175 E195.69085
G1 X-5.542 Y-1.175 E195.71404
G1 X-12.825 Y-8.458 E196.18561
G1 X-12.825 Y-7.952 E196.20881
G1 X-6.048 Y-1.175 E196.64758
G1 X-6.555 Y-1.175 E196.67078
